Hatter-kde/actions/22/im-facebook.svg

<svg xmlns="http://www.w3.org/2000/svg" viewBox="0 0 22 22">
  <defs id="defs3051">
    <style type="text/css" id="current-color-scheme">
      .ColorScheme-Text {
        color:#363636;
      }
      </style>
  </defs>
 <path 
     style="fill:currentColor;fill-opacity:1;stroke:none" 
     d="M 16.65625 3 C 13.860304 3 12.876953 4.415375 12.876953 6.796875 L 12.876953 8.4121094 L 11 8.4121094 L 11 11.470703 L 12.876953 11.470703 L 12.876953 19 L 16.363281 19 L 16.363281 11.470703 L 18.691406 11.470703 L 19 8.4121094 L 16.363281 8.4121094 L 16.369141 7.0898438 C 16.369141 6.3282437 16.440711 5.9199219 17.529297 5.9199219 L 18.984375 5.9199219 L 18.984375 3 L 16.65625 3 z "
     class="ColorScheme-Text"
     />
</svg>

<?xml version="1.0" encoding="UTF-8"?>
<svg viewBox="0 0 22 22" xmlns="http://www.w3.org/2000/svg">
 <defs id="defs3051">
  <style id="current-color-scheme" type="text/css">.ColorScheme-Text {
        color:#363636;
      }</style>
 </defs>
 <path class="ColorScheme-Text" d="m16.656 3c-2.7959 0-3.7793 1.4154-3.7793 3.7969v1.6152h-1.877v3.0586h1.877v7.5293h3.4863v-7.5293h2.3281l0.30859-3.0586h-2.6367l0.00586-1.3223c0-0.7616 0.07157-1.1699 1.1602-1.1699h1.4551v-2.9199h-2.3281z" fill="currentColor"/>
</svg>
